swiss/communes/0769.svg

<?xml version="1.0" encoding="UTF-8" standalone="no"?>
<svg
   xmlns:dc="http://purl.org/dc/elements/1.1/"
   xmlns:cc="http://web.resource.org/cc/"
   xmlns:rdf="http://www.w3.org/1999/02/22-rdf-syntax-ns#"
   xmlns:svg="http://www.w3.org/2000/svg"
   xmlns="http://www.w3.org/2000/svg"
   xmlns:xlink="http://www.w3.org/1999/xlink"
   xmlns:sodipodi="http://sodipodi.sourceforge.net/DTD/sodipodi-0.dtd"
   xmlns:inkscape="http://www.inkscape.org/namespaces/inkscape"
   height="763"
   width="603"
   version="1.0"
   id="svg20"
   sodipodi:version="0.32"
   inkscape:version="0.44.1"
   sodipodi:docname="Wimmis-coat of arms.svg"
   sodipodi:docbase="F:\MIS DOCUMENTOS\Mis imágenes\Encyclopédie\Escudos de Suiza">
  <metadata
     id="metadata31">
    <rdf:RDF>
      <cc:Work
         rdf:about="">
        <dc:format>image/svg+xml</dc:format>
        <dc:type
           rdf:resource="http://purl.org/dc/dcmitype/StillImage" />
        <dc:date>07-AUG-2006</dc:date>
        <dc:creator>
          <cc:Agent>
            <dc:title>Jérôme BLUM (wagner51)</dc:title>
          </cc:Agent>
        </dc:creator>
        <cc:license
           rdf:resource="http://creativecommons.org/licenses/GPL/2.0/" />
        <dc:coverage />
        <dc:description>Gabarit pour le Projet:Blasons de WIkipédia</dc:description>
        <dc:subject>
          <rdf:Bag>
            <rdf:li>blason suisse modèle gabarit projet blasons</rdf:li>
          </rdf:Bag>
        </dc:subject>
        <dc:language>fr</dc:language>
        <dc:title>Gabrit d'un blason suisse</dc:title>
      </cc:Work>
      <cc:License
         rdf:about="http://creativecommons.org/licenses/GPL/2.0/">
        <cc:permits
           rdf:resource="http://web.resource.org/cc/Reproduction" />
        <cc:permits
           rdf:resource="http://web.resource.org/cc/Distribution" />
        <cc:requires
           rdf:resource="http://web.resource.org/cc/Notice" />
        <cc:permits
           rdf:resource="http://web.resource.org/cc/DerivativeWorks" />
        <cc:requires
           rdf:resource="http://web.resource.org/cc/ShareAlike" />
        <cc:requires
           rdf:resource="http://web.resource.org/cc/SourceCode" />
      </cc:License>
    </rdf:RDF>
  </metadata>
  <defs
     id="defs29">
    <linearGradient
       id="linearGradient2893">
      <stop
         style="stop-color:#ffffff;stop-opacity:0.3137255;"
         offset="0"
         id="stop2895" />
      <stop
         id="stop2897"
         offset="0.19"
         style="stop-color:#ffffff;stop-opacity:0.25098041;" />
      <stop
         style="stop-color:#6b6b6b;stop-opacity:0.1254902;"
         offset="0.60000002"
         id="stop2901" />
      <stop
         style="stop-color:#000000;stop-opacity:0.1254902;"
         offset="1"
         id="stop2899" />
    </linearGradient>
    <linearGradient
       id="linearGradient2955">
      <stop
         style="stop-color:white;stop-opacity:0;"
         offset="0"
         id="stop2965" />
      <stop
         style="stop-color:black;stop-opacity:0.64583331;"
         offset="1"
         id="stop2959" />
    </linearGradient>
    <radialGradient
       inkscape:collect="always"
       xlink:href="#linearGradient2893"
       id="radialGradient3236"
       gradientUnits="userSpaceOnUse"
       gradientTransform="matrix(1.215027,1.531577e-24,1.464684e-23,1.266667,-839.1924,-490.4894)"
       cx="858.04236"
       cy="579.93323"
       fx="858.04236"
       fy="579.93323"
       r="300" />
  </defs>
  <sodipodi:namedview
     inkscape:window-height="682"
     inkscape:window-width="1024"
     inkscape:pageshadow="2"
     inkscape:pageopacity="0.0"
     guidetolerance="10.0"
     gridtolerance="10.0"
     objecttolerance="10.0"
     borderopacity="1.0"
     bordercolor="#666666"
     pagecolor="#ffffff"
     id="base"
     inkscape:zoom="0.3578463"
     inkscape:cx="355.20259"
     inkscape:cy="287.62561"
     inkscape:window-x="-4"
     inkscape:window-y="-4"
     inkscape:current-layer="layer2"
     showgrid="true" />
  <desc
     id="desc22">Coat of Arms of Canton of Freiburg (Fribourg)</desc>
  <g
     inkscape:groupmode="layer"
     id="layer1"
     inkscape:label="Fond écu"
     sodipodi:insensitive="true">
    <path
       id="path1899"
       d="M 1.5,1.49998 L 1.5,460.3679 C 1.5,626.6785 135.81456,761.5 301.49999,761.5 C 467.18543,761.5 601.5,626.6785 601.5,460.3679 L 601.5,1.49998 L 1.5,1.49998 z "
       style="fill:#fe0000;fill-opacity:1" />
  </g>
  <g
     inkscape:groupmode="layer"
     id="layer2"
     inkscape:label="Meubles"
     sodipodi:insensitive="true">
    <g
       id="g9064"
       transform="matrix(1.123036,0,0,2.202196,-688.9721,-399.9684)">
      <path
         sodipodi:nodetypes="ccccccccccccccccccccccccccccccccccccccccccccc"
         id="path2822"
         d="M 706.25321,480.28164 L 822.47503,480.26443 L 823.14943,470.48089 L 937.68072,471.05481 L 937.95362,480.12242 L 1052.3319,479.58302 L 1052.3253,259.38233 C 1063.5914,259.16947 1069.5624,258.83515 1078.181,258.56156 L 1078.181,210.28164 L 1041.8408,210.28164 L 1041.2101,234.18038 L 1018.181,233.92435 L 1018.181,210.28164 L 976.71707,210.28164 L 975.25307,233.19238 L 954.52117,233.19238 L 955.25307,210.28164 L 918.18097,210.28164 L 918.18097,259.29352 L 938.45107,259.8111 L 937.76657,366.48861 C 939.22087,368.24034 924.70951,368.09651 918.18097,367.85252 L 918.18097,340.01507 L 894.52762,340.02192 L 894.93427,366.85901 C 898.5087,366.40465 874.95012,366.52968 866.68088,366.85901 L 866.45633,340.79553 L 843.96393,340.94571 L 843.26531,367.35706 L 821.30281,367.30139 L 820.3041,258.86475 L 839.57214,258.86475 L 838.84017,210.28164 L 809.57214,210.28164 L 808.52479,233.92435 L 785.42786,233.92435 L 785.42786,210.28164 L 746.64427,210.28164 L 746.64427,233.92435 C 746.64427,233.92435 722.5,233.92435 722.5,233.92435 L 722.5,210.28164 L 682.5,210.28164 L 682.5,259.59671 L 705.94544,259.8111 L 706.25321,480.28164 z "
         style="fill:white;fill-opacity:1;fill-rule:evenodd;stroke:black;stroke-width:3.17940068;stroke-linecap:butt;stroke-linejoin:miter;stroke-miterlimit:4;stroke-dasharray:none;stroke-opacity:1" />
      <path
         id="path3701"
         d="M 877.77001,419.79384 C 862.59,419.79384 850.27002,427.09887 850.27001,436.09972 C 850.27001,436.73241 850.33905,437.35721 850.45751,437.97119 L 850.27001,437.97119 L 850.27001,470.58297 L 905.27001,470.58297 L 905.27001,437.97119 L 905.08251,437.97119 C 905.20097,437.35721 905.27001,436.73241 905.27001,436.09972 C 905.27001,427.09888 892.95001,419.79384 877.77001,419.79384 z "
         style="fill:white;fill-opacity:1;fill-rule:evenodd;stroke:black;stroke-width:1.90764081;stroke-linecap:round;stroke-linejoin:round;stroke-miterlimit:4;stroke-dasharray:none;stroke-opacity:1" />
      <path
         id="path2804"
         d="M 821.41193,333.55645 L 822.43772,479.10275"
         style="fill:white;fill-opacity:1;fill-rule:evenodd;stroke:black;stroke-width:3.17940092;stroke-linecap:butt;stroke-linejoin:miter;stroke-miterlimit:4;stroke-dasharray:none;stroke-opacity:1"
         sodipodi:nodetypes="cc" />
      <path
         style="fill:white;fill-opacity:1;fill-rule:evenodd;stroke:black;stroke-width:3.17940068;stroke-linecap:butt;stroke-linejoin:miter;stroke-miterlimit:4;stroke-dasharray:none;stroke-opacity:1"
         d="M 937.5128,330.27116 L 937.9307,477.61748"
         id="path3691"
         sodipodi:nodetypes="cc" />
      <path
         style="fill:white;fill-opacity:1;fill-rule:evenodd;stroke:black;stroke-width:3.17940092;stroke-linecap:butt;stroke-linejoin:miter;stroke-miterlimit:4;stroke-dasharray:none;stroke-opacity:1"
         d="M 820.00005,259.16896 C 698.67302,259.54472 698.67302,259.54472 698.67302,259.54472 L 698.67302,259.54472 L 698.67302,259.54472 L 820.00005,259.16896"
         id="path3693" />
      <path
         id="path3695"
         d="M 1059.55,259.16896 C 938.22297,259.54472 938.22297,259.54472 938.22297,259.54472 L 938.22297,259.54472 L 938.22297,259.54472 L 1059.55,259.16896"
         style="fill:white;fill-opacity:1;fill-rule:evenodd;stroke:black;stroke-width:3.17940092;stroke-linecap:butt;stroke-linejoin:miter;stroke-miterlimit:4;stroke-dasharray:none;stroke-opacity:1"
         sodipodi:nodetypes="ccccc" />
      <rect
         y="298.09222"
         x="745.65735"
         height="29.521122"
         width="32.946404"
         id="rect3697"
         style="fill:white;fill-opacity:1;fill-rule:evenodd;stroke:black;stroke-width:1.90764141;stroke-linecap:round;stroke-linejoin:round;stroke-miterlimit:4;stroke-dasharray:none;stroke-opacity:1" />
      <rect
         style="fill:white;fill-opacity:1;fill-rule:evenodd;stroke:black;stroke-width:1.90764129;stroke-linecap:round;stroke-linejoin:round;stroke-miterlimit:4;stroke-dasharray:none;stroke-opacity:1"
         id="rect3699"
         width="32.946404"
         height="28.252161"
         x="978.1272"
         y="299.36108" />
    </g>
  </g>
  <g
     inkscape:groupmode="layer"
     id="layer3"
     inkscape:label="Reflet final"
     style="display:inline"
     sodipodi:insensitive="true">
    <path
       style="fill:url(#radialGradient3236);fill-opacity:1"
       d="M 1.5,1.5 L 1.5,460.3679 C 1.5,626.67854 135.81454,761.5 301.49993,761.5 C 467.1854,761.5 601.5,626.67854 601.5,460.3679 L 601.5,1.5 L 1.5,1.5 z "
       id="path2346" />
  </g>
  <g
     inkscape:groupmode="layer"
     id="layer4"
     inkscape:label="Contour final"
     style="display:inline"
     sodipodi:insensitive="true">
    <path
       style="fill:none;fill-opacity:1;stroke:#000000;stroke-width:3;stroke-miterlimit:4;stroke-dasharray:none;stroke-opacity:1"
       d="M 1.5,1.5 L 1.5,460.36794 C 1.5,626.67854 135.81454,761.5 301.49993,761.5 C 467.1854,761.5 601.5,626.67854 601.5,460.36794 L 601.5,1.5 L 1.5,1.5 z "
       id="path3239" />
  </g>
</svg>

<svg xmlns="http://www.w3.org/2000/svg" xmlns:xlink="http://www.w3.org/1999/xlink" height="763" width="603" version="1.0"><defs><radialGradient xlink:href="#a" id="b" gradientUnits="userSpaceOnUse" gradientTransform="matrix(1.21503 0 0 1.26667 -839.192 -490.49)" cx="858.042" cy="579.933" fx="858.042" fy="579.933" r="300"/><linearGradient id="a"><stop style="stop-color:#fff;stop-opacity:.3137255" offset="0"/><stop offset=".19" style="stop-color:#fff;stop-opacity:.25098041"/><stop style="stop-color:#6b6b6b;stop-opacity:.1254902" offset=".6"/><stop style="stop-color:#000;stop-opacity:.1254902" offset="1"/></linearGradient></defs><path d="M1.5 1.5v458.868c0 166.31 134.315 301.132 300 301.132s300-134.822 300-301.132V1.5H1.5z" style="fill:#fe0000;fill-opacity:1"/><path d="m706.253 480.282 116.222-.018.674-9.783 114.532.574.273 9.067 114.378-.539-.007-220.2c11.266-.214 17.237-.548 25.856-.821v-48.28h-36.34l-.63 23.898-23.03-.256v-23.642h-41.464l-1.464 22.91h-20.732l.732-22.91h-37.072v49.012l20.27.517-.684 106.678c1.454 1.751-13.057 1.608-19.586 1.364v-27.838l-23.653.007.406 26.837c3.575-.454-19.984-.33-28.253 0l-.225-26.063-22.492.15-.699 26.411-21.962-.056-.999-108.436h19.268l-.732-48.583h-29.268l-1.047 23.642h-23.097v-23.642h-38.784v23.642H722.5v-23.642h-40v49.315l23.445.214.308 220.47z" style="fill:#fff;fill-opacity:1;fill-rule:evenodd;stroke:#000;stroke-width:3.17940068;stroke-linecap:butt;stroke-linejoin:miter;stroke-miterlimit:4;stroke-dasharray:none;stroke-opacity:1" transform="matrix(1.12304 0 0 2.2022 -688.972 -399.968)"/><path d="M877.77 419.794c-15.18 0-27.5 7.305-27.5 16.306 0 .632.07 1.257.188 1.871h-.188v32.612h55v-32.612h-.187a9.87 9.87 0 0 0 .187-1.871c0-9.001-12.32-16.306-27.5-16.306z" style="fill:#fff;fill-opacity:1;fill-rule:evenodd;stroke:#000;stroke-width:1.90764081;stroke-linecap:round;stroke-linejoin:round;stroke-miterlimit:4;stroke-dasharray:none;stroke-opacity:1" transform="matrix(1.12304 0 0 2.2022 -688.972 -399.968)"/><path d="m821.412 333.556 1.026 145.547" style="fill:#fff;fill-opacity:1;fill-rule:evenodd;stroke:#000;stroke-width:3.17940092;stroke-linecap:butt;stroke-linejoin:miter;stroke-miterlimit:4;stroke-dasharray:none;stroke-opacity:1" transform="matrix(1.12304 0 0 2.2022 -688.972 -399.968)"/><path style="fill:#fff;fill-opacity:1;fill-rule:evenodd;stroke:#000;stroke-width:3.17940068;stroke-linecap:butt;stroke-linejoin:miter;stroke-miterlimit:4;stroke-dasharray:none;stroke-opacity:1" d="m937.513 330.271.418 147.346" transform="matrix(1.12304 0 0 2.2022 -688.972 -399.968)"/><path style="fill:#fff;fill-opacity:1;fill-rule:evenodd;stroke:#000;stroke-width:3.17940092;stroke-linecap:butt;stroke-linejoin:miter;stroke-miterlimit:4;stroke-dasharray:none;stroke-opacity:1" d="m820 259.169-121.327.376L820 259.169M1059.55 259.169l-121.327.376 121.327-.376" transform="matrix(1.12304 0 0 2.2022 -688.972 -399.968)"/><path style="fill:#fff;fill-opacity:1;fill-rule:evenodd;stroke:#000;stroke-width:1.90764141;stroke-linecap:round;stroke-linejoin:round;stroke-miterlimit:4;stroke-dasharray:none;stroke-opacity:1" d="M745.657 298.092h32.946v29.521h-32.946z" transform="matrix(1.12304 0 0 2.2022 -688.972 -399.968)"/><path style="fill:#fff;fill-opacity:1;fill-rule:evenodd;stroke:#000;stroke-width:1.90764129;stroke-linecap:round;stroke-linejoin:round;stroke-miterlimit:4;stroke-dasharray:none;stroke-opacity:1" d="M978.127 299.361h32.946v28.252h-32.946z" transform="matrix(1.12304 0 0 2.2022 -688.972 -399.968)"/><g style="display:inline"><path style="fill:url(#b);fill-opacity:1" d="M1.5 1.5v458.868c0 166.31 134.315 301.132 300 301.132s300-134.821 300-301.132V1.5H1.5z"/></g><g style="display:inline"><path style="fill:none;fill-opacity:1;stroke:#000;stroke-width:3;stroke-miterlimit:4;stroke-dasharray:none;stroke-opacity:1" d="M1.5 1.5v458.868c0 166.31 134.315 301.132 300 301.132s300-134.821 300-301.132V1.5H1.5z"/></g></svg>
